dist/assets/symbols/mail.svg

<svg viewBox="0 0 20 20" fill="none" xmlns="http://www.w3.org/2000/svg">
  <path fill-rule="evenodd" clip-rule="evenodd" d="M2 4C1.44772 4 1 4.44772 1 5V15C1 15.5523 1.44772 16 2 16H18C18.5523 16 19 15.5523 19 15V5C19 4.44772 18.5523 4 18 4H2ZM3.9741 5.61953C3.48782 5.35769 2.88136 5.53963 2.61952 6.0259C2.35769 6.51217 2.53963 7.11863 3.0259 7.38047L9.5259 10.8805C9.82187 11.0398 10.1781 11.0398 10.4741 10.8805L16.9741 7.38047C17.4604 7.11863 17.6423 6.51217 17.3805 6.0259C17.1186 5.53963 16.5122 5.35769 16.0259 5.61953L10 8.86424L3.9741 5.61953Z" fill="currentColor" />
</svg>

<svg xmlns="http://www.w3.org/2000/svg" fill="none" viewBox="0 0 20 20"><path fill="currentColor" fill-rule="evenodd" d="M2 4a1 1 0 0 0-1 1v10a1 1 0 0 0 1 1h16a1 1 0 0 0 1-1V5a1 1 0 0 0-1-1H2Zm1.974 1.62a1 1 0 1 0-.948 1.76l6.5 3.5a1 1 0 0 0 .948 0l6.5-3.5a1 1 0 1 0-.948-1.76L10 8.864 3.974 5.62Z" clip-rule="evenodd"/></svg>
